src/assets/img/javascript.svg

<svg width="56" height="60" viewBox="0 0 56 60" fill="none" xmlns="http://www.w3.org/2000/svg">
<path d="M0.0999756 0C18.7125 0 37.2874 0 55.9 0C55.9 20.0135 55.9 40.027 55.9 60C37.3251 60 18.7125 60 0.0999756 60C0.0999756 39.946 0.0999756 19.973 0.0999756 0ZM50.0223 31.7623C48.892 29.5746 47.3472 28.0756 45.1243 27.549C43.5418 27.1438 41.9594 27.1438 40.3769 27.5084C35.2528 28.6428 33.0676 35.287 36.3832 39.7029C37.5512 41.2424 39.0959 42.1742 40.716 42.9845C42.1478 43.7137 43.6172 44.4024 45.0489 45.1722C46.0285 45.6988 46.443 46.6712 46.33 47.846C46.2169 49.0209 45.4634 49.6691 44.5214 50.0338C42.4115 50.844 39.9625 50.1148 38.5308 48.2107C38.2293 47.8055 37.9279 47.3599 37.6265 46.9142C36.1948 47.8055 34.8007 48.6563 33.4067 49.5476C34.2732 51.3707 35.4789 52.8292 37.1367 53.8015C39.9625 55.4625 42.939 55.7056 45.9909 54.8953C47.9878 54.3687 49.6832 53.2748 50.7382 51.2897C52.6974 47.5219 51.5671 42.8224 48.1008 40.5132C46.556 39.5003 44.8229 38.8116 43.2027 37.9203C42.4115 37.4747 41.5826 37.0695 40.9044 36.5024C39.6988 35.449 39.9248 33.3423 41.2812 32.5321C42.5999 31.7218 44.4461 32.208 45.4634 33.6259C45.6894 33.9095 45.8401 34.2336 46.0662 34.5577C47.3472 33.6259 48.6659 32.6941 50.0223 31.7623ZM14.7941 50.1553C15.5476 51.8974 16.6403 53.2748 18.1851 54.1661C20.1819 55.341 22.3672 55.5435 24.5902 55.1789C26.5871 54.8548 28.2449 53.8825 29.3375 51.9379C30.2418 50.3173 30.5055 48.5348 30.5055 46.6306C30.5055 40.4726 30.5055 34.3147 30.5055 28.1566C30.5055 27.9946 30.5055 27.792 30.5055 27.5895C28.7347 27.5895 27.0392 27.5895 25.2684 27.5895C25.2684 27.8325 25.2684 28.0351 25.2684 28.2782C25.2684 34.3552 25.2684 40.3916 25.2684 46.4686C25.2684 47.0358 25.2307 47.6435 25.1553 48.2107C25.0046 49.1425 24.5525 49.8312 23.6859 50.1148C22.0658 50.6415 20.7471 50.1148 19.8052 48.6158C19.5791 48.2107 19.353 47.8055 19.0893 47.4004C17.6199 48.3322 16.2258 49.2235 14.7941 50.1553Z" fill="#930f50"/>
</svg>

<svg width="56" height="60" fill="none" xmlns="http://www.w3.org/2000/svg"><path d="M.1 0h55.8v60H.1V0Zm49.922 31.762c-1.13-2.187-2.675-3.686-4.898-4.213a9.905 9.905 0 0 0-4.747-.04c-5.124 1.134-7.31 7.778-3.994 12.194 1.168 1.54 2.713 2.471 4.333 3.281 1.432.73 2.901 1.418 4.333 2.188.98.527 1.394 1.5 1.281 2.674-.113 1.175-.867 1.823-1.809 2.188-2.11.81-4.559.08-5.99-1.823-.302-.405-.603-.851-.904-1.297-1.432.892-2.826 1.742-4.22 2.634.866 1.823 2.072 3.281 3.73 4.253 2.825 1.661 5.802 1.905 8.854 1.094 1.997-.526 3.692-1.62 4.747-3.605 1.96-3.768.83-8.468-2.637-10.777-1.545-1.013-3.278-1.701-4.898-2.593-.792-.445-1.62-.85-2.299-1.418-1.205-1.053-.98-3.16.377-3.97 1.319-.81 3.165-.324 4.182 1.094.226.284.377.608.603.932 1.281-.932 2.6-1.864 3.956-2.796ZM14.794 50.155c.754 1.742 1.846 3.12 3.391 4.011 1.997 1.175 4.182 1.378 6.405 1.013 1.997-.324 3.655-1.297 4.747-3.241.905-1.62 1.169-3.403 1.169-5.307V27.59h-5.238v18.878c0 .568-.037 1.175-.113 1.743-.15.931-.603 1.62-1.47 1.904-1.62.526-2.938 0-3.88-1.5-.226-.404-.452-.81-.716-1.215-1.47.932-2.863 1.824-4.295 2.755Z" fill="#930f50"/></svg>
